X:1
T:The Rusty Cold Farmer
M:3/4
L:1/4
K:F
 c/2c/2| f f f| f e d/2d/2| c d c| A z c| c e d| c d e| f3| z2 f/2g/2|\
 a g f| g f e| f e d| c z c/2c/2| c e d| c d e| f3| z2 c| f f f| f e d|\
 c d c| A z c| c e d| c d e| g f2| z2 g| a g f| g f e| f e d| c2 c|\
 c e d| c d e| g f2-| f2||
